!!!COM: Palestrina, Giovanni Perluigi da
!!!OPR: Missa Quando lieta sperai
!!!OMD: Benedictus
!!!OTL: First Section
**kern	**kern	**kern	**kern
*Ibarit	*Itenor	*Icalto	*Icant
!Baritone	!Tenor	!Altus	!Cantus
*clefF4	*clefGv2	*clefG2	*clefG2
*k[]	*k[]	*k[]	*k[]
*A:aeo	*A:aeo	*A:aeo	*A:aeo
*M4/2	*M4/2	*M4/2	*M4/2
=1	=1	=1	=1
0r	1r	1r	1a
.	1A	1e	[1cc
=2	=2	=2	=2
0r	1.e	1.g	2cc]
.	.	.	2b
.	.	.	2cc
.	2d	2f	[2b
=3	=3	=3	=3
0r	2c#	2e	4b]
.	.	.	4a
.	2d	2f	1a
.	1B	1d	.
.	.	.	2g
=4	=4	=4	=4
1D	2A	1a	1f
.	1d	.	.
[1A	.	2.a	1e
.	4c	.	.
.	4B	4g	.
=5	=5	=5	=5
2A]	2c	2f	0r
2G	2B	2e	.
2F#	2A	1d	.
2G	[2d	.	.
=6	=6	=6	=6
1E	2d]	0e	1r
.	4c#	.	.
.	4B	.	.
1A	1c#	.	2r
.	.	.	2e
=7	=7	=7	=7
4D	2d	1r	1.f
4E	.	.	.
4F	4A	.	.
4G	4B	.	.
2A	4c	2r	.
.	4d	.	.
2A	4e	[2A	2e
.	4c	.	.
=8	=8	=8	=8
2D	2d	2A]	2f
2E	2B	1e	2g
2.F	[1A	.	1a
.	.	2d	.
4G	.	.	.
=9	=9	=9	=9
2A	1A]	2c#	2e
2D	.	2d	1a
1E	[1e	1B	.
.	.	.	2g
=10	=10	=10	=10
1A	1e]	4A	1.cc
.	.	4B	.
.	.	4c	.
.	.	4d	.
2r	1r	4e	.
.	.	4f	.
2G	.	[2g	2b
=11	=11	=11	=11
1.d	0r	2g]	2.a
.	.	4f	.
.	.	4e	4g
.	.	2f	4a
.	.	.	4b
2c	.	2e	[2a
=12	=12	=12	=12
2B	0r	2d	4a]
.	.	.	4g
2c	.	2e	1g
1A	.	1c#	.
.	.	.	4f#
.	.	.	4e
=13	=13	=13	=13
1D	2r	2d	1f#
.	1d	2A	.
1G	.	1B	2.g
.	[2g	.	.
.	.	.	4a
=14	=14	=14	=14
0r	2g]	2r	4b
.	.	.	4cc
.	2f	2d	2.dd
.	2e	2g	.
.	.	.	4cc
.	2f	2a	[2cc
=15	=15	=15	=15
1r	1d	2f	2cc]
.	.	2f	4b
.	.	.	4a
1G	2G	1g	4b
.	.	.	4cc
.	2d	.	4dd
.	.	.	4b
=16	=16	=16	=16
1.c	1.e	1g	1cc
.	.	2r	1g
2B	2d	2g	.
=17	=17	=17	=17
2A	2c#	1.a	0r
4F	2d	.	.
4G	.	.	.
4A	4c	.	.
4B	4d	.	.
2c	[2e	2g	.
=18	=18	=18	=18
2d	4e]	2f	2r
.	4d	.	.
2G	2.d	2g	2d
1A	.	1e	[1a
.	4c	.	.
.	2c	.	.
=19	=19	=19	=19
0r	4A	2f	2a]
.	4B	.	.
.	2c	2.e	2g
.	2d	.	2f#
.	.	4d	.
.	2G	[2d	2g
=20	=20	=20	=20
1r	1A	2d]	1e
.	.	2c#	.
2r	1r	2d	1f
2D	.	2d	.
=21	=21	=21	=21
2.A	0r	2.c	0e
4G	.	4B	.
2A	.	2c	.
2c	.	2e	.
=22	=22	=22	=22
2B	2r	2d	0r
1A	2A	1c	.
.	2.e	.	.
4G	.	4B	.
4F	4d	4A	.
=23	=23	=23	=23
2E	2e	4B	1r
.	.	4c	.
2D	2f	4d	.
.	.	4B	.
2A	2e	2c	2r
2B-	[2d	2d	2d
=24	=24	=24	=24
0A	2d]	1e	2.a
.	4c	.	.
.	4B	.	4g
.	4c	1r	2a
.	4d	.	.
.	4e	.	2cc
.	4c	.	.
=25	=25	=25	=25
0r	2d	2r	2b
.	2c	2A	1a
.	2.B	2.d	.
.	.	.	4g
.	4A	4c	4f
=26	=26	=26	=26
0r	2B	2d	1g
.	2c	2.e	.
.	2.A	.	1a
.	.	4c	.
.	.	2f	.
.	4B	.	.
=27	=27	=27	=27
0r	2c	2e	2g
.	2d	1d	2f
.	1A	.	1e
.	.	2c#	.
=28	=28	=28	=28
2r	2r	2d	1d
2D	2d	2f	.
2.A	2.c	2.e	1r
4G	4B	4e	.
=29	=29	=29	=29
2A	2c	1e	0r
2c	2e	.	.
2B	2d	2g	.
[2A	[2c	2f	.
=30	=30	=30	=30
4A]	4c]	2e	1r
4G	4B	.	.
4F	4A	2.f	.
4E	8B	.	.
.	8c	.	.
2D	1d	.	2r
.	.	4e	.
[2d	.	4f	2d
.	.	4d	.
=31	=31	=31	=31
2d]	0A	1.e	2.a
4c	.	.	.
4B	.	.	4g
2c	.	.	2a
2F	.	2a	2cc
=32	=32	=32	=32
2G	1r	2g	2b
2D	.	2f	2.a
1A	2r	2e	.
.	.	.	4g
.	2A	[2a	4f
.	.	.	4e
=33	=33	=33	=33
0r	2.d	4a]	2f
.	.	4g	.
.	.	4f	2.a
.	4c	4e	.
.	2d	4f	.
.	.	4e	4g
.	2f	2d	4a
.	.	.	4f
=34	=34	=34	=34
1r	2e	2c	2g
.	1d	2d	2f
1A	.	2a	1e
.	2c#	2a	.
=35	=35	=35	=35
2.d	2d	2.f	2r
.	2A	.	2a
4c#	.	4e	.
2d	2.d	2f	2.a
2A	.	4e	.
.	4c	4f	4a
=36	=36	=36	=36
2G	2d	2g	2b
2.F	1f	2a	2.cc
.	.	1a	.
4G	.	.	4b
4A	[2e	.	[2a
4B	.	.	.
=37	=37	=37	=37
4c	2e]	2r	2a]
4A	.	.	.
2B-	1d	2d	2g
1A	.	2e	2a
.	2c#	2e	[2a
=38	=38	=38	=38
[0D	1d	2f	4a]
.	.	.	4g
.	.	2.a	4f
.	.	.	4e
.	2r	.	2.d
.	.	4g	.
.	[2a	4f	.
.	.	4e	4e
=39	=39	=39	=39
1D]	4a]	2.d	2.f
.	4g	.	.
.	4f	.	.
.	4e	4e	4g
1D	2d	2f	2a
.	2d	2f	2a
=40	=40	=40	=40
0A	0c#	0e	0a
*-	*-	*-	*-
!!!CDT: 1525/^1526/-1594/2/2
!!!OCY: Italia
!!!AGN: Mass (Parody)
!!!AST: renaissance, vocal
!!!ASW: Madrigal 1548 (anon (Rore, Morales))
!!!PWK: Masses, Book 11
!!!RNB: Cadence finals: G,E
!!!YOR: Le Opere Complete, v. 28, p. 73
!!!YOO: Rome, Italy: Fratelli Scalera
!!!END: 1992//
!!!EED: John Miller
!!!YEC: Copyright 2000, John Miller
!!!YEN: United States of America
!!!YEM: Rights to all derivative electronic formats reserved.
!!!YEM: Refer to licensing agreement for further details.
!!!YEM: This file must be accompanied by the licensing agreement.
!!!YEM: A copy of the licensing agreement may be found at http://www.music-cog.ohio-state.edu/HumdrumDatabases/Palestrina/license.txt
!!!EMD: converted to Humdrum by Bret Aarden
